!!!COM: Music21
!!!OTL: Jota de Beigondo
!!!OMV: pezas_jotas_jota-de-beigondo_jota-de-beigondo-partitura.musicxml
**kern
*part1
*staff1
*I"Bagpipes
*I'Bag
*clefG^2
*k[]
*M3/4
=1
!LO:TX:a:t=Prestissimo
*MM210
!LO:TX:a:t=[quarter]=210
4r
8cccL
8bbJ
8aaL
8ggJ
=||
8bbL
8aaJ
8ggL
8bbJ
8aaL
8ggJ
=
8aaL
8ggJ
8ffL
8aaJ
8ggL
8ffJ
=
8ggL
8ffJ
8eeL
8ggJ
8ffL
8eeJ
=
4dd
8bbL
8aaJ
8ggL
8ffJ
=
8ggL
8ffJ
8eeL
8ggJ
8ffL
8eeJ
=
8ffL
8eeJ
8ddL
8ffJ
8eeL
8ddJ
!!linebreak:original
=
8bbL
8aaJ
8ggL
8ffJ
8eeL
8ddJ
=
4cc
8cccL
8bbJ
8aaL
8ggJ
=||
8bbL
8aaJ
8ggL
8bbJ
8aaL
8ggJ
=
8aaL
8ggJ
8ffL
8aaJ
8ggL
8ffJ
=
8ggL
8ffJ
8eeL
8ggJ
8ffL
8eeJ
=
4dd
8bbL
8aaJ
8ggL
8ffJ
=
8ggL
8ffJ
8eeL
8ggJ
8ffL
8eeJ
!!linebreak:original
=
8ffL
8eeJ
8ddL
8ffJ
8eeL
8ddJ
!!linebreak:original
=
8bbL
8aaJ
8ggL
8ffJ
8eeL
8ddJ
=
4cc
8ggL
8eeJ
4cc
=||
12ddL
12ee
12ddJ
[2cc
=
4cc]
8ggL
8ggJ
4gg
=
4bb
4aa
4gg
=
12aaL
12bb
12aaJ
8ggL
8ffJ
[4ee
=
2.ee_
=
4ee]
8ggL
8ggJ
4gg
=
4ccc
4bb
4aa
!!linebreak:original
=
12bbL
12ccc
12bbJ
8aaL
8ggJ
[4ff
=
2.ff_
=
4ff]
8ggL
8ggJ
4gg
=
4bb
4aa
4gg
=
12aaL
12bb
12aaJ
8ggL
8ffJ
[4ee
=
2.ee_
=
4ee]
8ggL
8ggJ
4gg
=||
4ccc
4bb
4aa
=
12bbL
12ccc
12bbJ
8aaL
8ggJ
[4ff
=
4ff]
4bb
4bb
!!linebreak:original
=
12bbL
12ccc
12bbJ
8aaL
8ggJ
[4ff
=
4ff]
4aa
4aa
=
12aaL
12bb
12aaJ
8ggL
8ffJ
[4ee
=
2.ee_
=
4ee]
8ggL
8ggJ
4gg
=||
4ccc
4bb
4aa
=
12bbL
12ccc
12bbJ
8aaL
8ggJ
[4ff
=
4ff]
4bb
4bb
!!pagebreak:original
=
12bbL
12ccc
12bbJ
8aaL
8ggJ
[4ff
=
4ff]
4aa
4aa
=
12aaL
12bb
12aaJ
8ggL
8ffJ
[4ee
=
2.ee]
=
4ee
8cccL
8bbJ
8aaL
8ggJ
==
*-
!!!system-decoration: s1,s2
